X: 164
T: When a Man's in Love He Feels No Cold
N:"Slow" "collected by J. O'Neill"
B:O'Neill's 164
Z:Transcribed by henrik.norbeck@mailbox.swipnet.se
M:C
L:1/8
K:G
(3DEF|G2 (BG) G2 (FG)|Bcde =f2 gd|e2 d>c B2 G2|F6 (3DEF|
G2 (BG) G2 (FG)|Bcde =f2 gf|e2 d>c B2 G2|G6||
de|=f>d (3cBA B>c (3def|g3 d =f2 gf|e2 d>c B2 G2 F6 (3DEF|
G2 (BG) G2 (FG)|Bcde =f2 gf|e2 d>c B2 G2|G4||


